X: 203
T: Lord Seaforth's Strathspey
B: John Pringle "Collection of Reels Strathspeys & Jigs", 1801 p.20#3
Z: 2011 John Chambers <jc:trillian.mit.edu>
R: strathspey
M: C
L: 1/8
K: G
V: 1
B | G<DD>E G>ABd | c>AB>G {F}E2EA | G<DD>E F>ABe | d<BA>B G2G :|
g | (e/f/g) d>g B<gB>G | c>AB>G {F}E2Eg | (e/f/g) d<g B>gd>B | c>Ad>B G2~G ||
g | e<gd<b c<aG<g | c>AB>G {F}E2 (E/c/B/A/) | G<DD>E F>ABe | d<B~A>B G2G |]
V: 2 clef=bass middle=d
z | G2B2 d2g2 | f2g2 c2C2 | G2B2 d2g2 | d2D2 A2A :|
z | c'2b2 g2G2 | f2g2 c2c2 | c'2b2 g2B2 | c2d2 G2G ||
z | c'2b2 a2g2 | f2g2 c2c2 | B2d2 B2G2 | d2D2 G2G |]

%%sep 2 1 500

